!!!OTL: 260. Lied eines Landmanns in der Fremde.
!!!COM: Vincenz Righini
!!!ODT: 1803
!!!ARE: Europa, Mitteleuropa, Deutschland
!!!SCT: B0260
!!!TXL: @@DE
!!!YEM: Copyright 1995, estate of Helmut Schaffrath.
**kern	**text
*ICvox	*
*Ivox	*
*M4/4	*
*met(c)	*
*clefG2	*
*k[]	*
*C:	*
!LO:TX:a:t=Sehr mäßig.	!
{8eL	Trau-
8fJ	.
8gL	-te
8aJ	.
=1	=1
4g	Hei-
4g	-math
8aL	mei-
8gJ	.
8aL	-ner
8bJ	.
=2	=2
4cc	Lie-
4g}	-ben,
{4ee	ſinn
4cc	ich
=3	=3
4g	ſtill
4e	an
4f	euch
4a	ʒu-
=4	=4
2d}	-rück,
{4.dd	wird
8b	mir
=5	=5
4.cc	wohl;
8g	und
4.dd	den-
8b	-noch
=6	=6
4cc	trü-
4g}	-ben
{4ee	Sehn-
4dd	-ſuchts-
=7	=7
4cc	-thrä-
4b	-nen
4a	mei-
4g#	-nen
=8	=8
2a}	Blick,
{8ccL	Sehn-
8bJ	.
8cc/L	-ſuchts-
8aJ	.
=9	=9
4.g	-thrä-
8e	-nen
8fL	mei-
8eJ	.
8fL	-nen
8dJ	.
=10	=10
2c}	Blick.
==	==
!!!AGN: Stimmungs - Lied, Sehnsucht, Heimat, Heimweh
!!!GTL: Trauerlieder (Elegien) und Stimmungslieder
!!!ONB: ESAC (Essen Associative Code) Database: BOEHME
!!!AMT: simple quadruple
!!!AIN: vox
!!!EED: Helmut Schaffrath
!!!EEV: 1.0
!!@@COMMENT:"Gedicht von Joh. Gaudenʒ von Salis-Seewis (um 1780). Gewöhnlich wurde nur Strophe 1-5 geſungen."
!!@@END:
!!!Text: Joh. G. von Salis-Seewis
!!!URL-scan: https://archive.org/details/BoehmeVtLieder1895/page/n225/mode/2up
!!!ENC: Anna Maria Matuszewska
!!!EEV: 2024/03/07
*-	*-
